X: 15
T: THREE MEET (Northumberland)
S: "COUNTRY DANCES OF TODAY 2", CDSS, May Gadd ed., 1951 p.15
R: jig
Z: 2010 John Chambers <jc:trillian.mit.edu>
M: 6/8
L: 1/8
K: G
"A1"[|] d |\
"G"gfe dcB | "D"d2c A2B | cBc "D7"e2d | "G"B3 GBd |\
   gfe dcB | "D"d2c A2B | cBc "D7"e2F | "G"G3- G2 ||
"A2"[|] d |\
"G"dcB BAG | "D7"F2A e2c | ded c2d | "G"B3 GBd |\
   dcB BAG | "D7"F2A e2c | "G"d2B "D7"dcA | "G"G3- G2 ||
"B1"[|] D |\
"G"G2A B2c | d3 B3d | "C"ed2 "D"c2d | "G"B3 G2D |\
   G2A B2c | d3 g2g | "D7"fed cBA | "G"G3- G2 ||
"B2"[|] D |\
"G"GFG B2c | d3 "C"e2c | "G"ded "D7"c2d | "G"B3 G2D |\
   GFG B2c | d3 "C"e2c | "G"d2B "D7"dcA | "G"G3- G2 |]


%%sep 5 1 500

%%sep 1 1 500

